X: 442
T: Éccosaise No. 3	 Op. 72
C: Fryderyk Chopin
%%abc-version 2.0
%%abcx-abcm2ps-target-version 5.9.1 (29 Sep 2008)
%%abc-creator hum2abc beta
%%abcx-conversion-date 2021/10/03 11:23:48
%%abc-edited-by Mateusz Mrugas
%%abc-edited-by Jędrzej Mróz
%%abcx-initial-encoding-date 2020-05-27
%%humdrum-veritas 2155889151
%%humdrum-veritas-data 2583555314
%%linebreak <none>
%%barnumbers 0
L: 1/8
M: 2/4
N: Derived from 072-1-MEIf-005.krn
P: ŒUVRES | POSTHUMES | POUR | PIANO | DE | FRÉD. CHOPIN
%%staves {1 2}
V: 1 clef=treble
V: 2 clef=bass
K: Db
[V:1] A [I:setbarnb 1]]|:  
[V:2] z ]|:  
[V:1] (3a/b/a/ x (3a/b/a/ x & fd/b/ gc/e'/ | 
[V:2] D,[A,DF] A,,[A,EG] | 
[V:1] (3a/b/a/ x (3a/b/a/ x & ge/c'/ fd/d'/ | 
[V:2] A,,[A,EG] D,[A,DF] | 
[V:1] (3a/b/a/ x (3a/b/a/ x & fd/b/ gc/e'/ | 
[V:2] D,[A,DF] A,,[A,EG] | 
[V:1] (3a/b/a/ x/ x/ x z & ge/c'/ [fd'] z | 
[V:2] A,,[A,EG] D,[A,DF] | 
[V:1] (3a/b/a/ x (3a/b/a/ x & fd/b/ gc/e'/ | 
[V:2] D,[A,DF] A,,[A,EG] | 
[V:1] (3a/b/a/ x (3a/b/a/ x & ge/c'/ fd/d'/ | 
[V:2] A,,[A,EG] D,[A,DF] | 
[V:1] (3a/b/a/ x (3a/b/a/ x & fd/b/ gc/e'/ | 
[V:2] D,[A,DF] A,,[A,EG] | 
[V:1] (3a/b/a/ x/ x/ x z & ge/c'/ [fd'] z | 
[V:2] A,,[A,EG] D,[A,DF] | 
[V:1] .c''!trill!g'/f'/ e'/d'/!trill!c'/b/ | 
[V:2] =A,,[F,CF] B,,[B,DF] | 
[V:1] a/g/f/e/ d/c/B/A/ | 
[V:2] E,[B,DG] A,[CG] | 
[V:1] =G/A/B/c/ d/e/f/_g/ | 
[V:2] A,,[A,CG] D,[A,DF] | 
[V:1] =g/a/b/c'/ d'/e'/=e'/f'/ | 
[V:2] A,,[A,CG] D,[A,DF] | 
[V:1] c''!trill!g'/f'/ e'/d'/!trill!c'/b/ | 
[V:2] =A,,[F,CF] B,,[B,DF] | 
[V:1] a/g/f/e/ d/c/B/A/ | 
[V:2] E,[B,DG] A,[CG] | 
[V:1] b/c/[g/a/]f'/ e'/f/[a/d'/]b'/ |[1 
[V:2] A,,[A,CG] D,[A,DF] | 
[V:1] a'/c'/[g'/a'/]c''/ [f'd''] A :|][2 
[V:2] A,,[A,EG] [DF] z :|]  
[V:1] a'/c'/[g'/a'/]c''/ [f'd''] z |]  
[V:2] A,,[A,EG] [DF] z |]
